local/share/icons/dracula-icons-main/16/actions/edit-line-width.svg

<?xml version="1.0" encoding="UTF-8"?>
<svg xmlns="http://www.w3.org/2000/svg" xmlns:xlink="http://www.w3.org/1999/xlink" width="16" height="16" viewBox="0 0 16 16">
<path fill-rule="nonzero" fill="rgb(100%, 100%, 100%)" fill-opacity="1" d="M 0.53125 0.53125 L 0.53125 0.792969 L 3.703125 0.792969 L 3.703125 0.527344 Z M 0.53125 1.585938 L 0.53125 2.117188 L 3.703125 2.117188 L 3.703125 1.585938 Z M 0.53125 2.910156 L 0.53125 3.703125 L 3.703125 3.703125 L 3.703125 2.910156 Z M 0.53125 2.910156 "/>
</svg>

<svg height="16" viewBox="0 0 4.233 4.233" width="16" xmlns="http://www.w3.org/2000/svg"><style type="text/css" id="current-color-scheme">
    .ColorScheme-Text {
        color:#FFFFFF;
    }
    </style><path d="M.53.53v.264h3.174V.529zm0 1.057v.53h3.174v-.53zm0 1.323v.794h3.174V2.91z" class="ColorScheme-Text" fill="currentColor"/>
</svg>
